svg/system/thumb_up_2_line.svg

<?xml version="1.0" encoding="UTF-8"?>
<svg width="24px" height="24px" viewBox="0 0 24 24" version="1.1" xmlns="http://www.w3.org/2000/svg" xmlns:xlink="http://www.w3.org/1999/xlink">
    <title>thumb_up_2_line</title>
    <g id="页面-1" stroke="none" stroke-width="1" fill="none" fill-rule="evenodd">
        <g id="System" transform="translate(-48.000000, -384.000000)">
            <g id="thumb_up_2_line" transform="translate(48.000000, 384.000000)">
                 <path d="M24,0 L24,24 L0,24 L0,0 L24,0 Z M12.5934901,23.257841 L12.5819402,23.2595131 L12.5108777,23.2950439 L12.4918791,23.2987469 L12.4918791,23.2987469 L12.4767152,23.2950439 L12.4056548,23.2595131 C12.3958229,23.2563662 12.3870493,23.2590235 12.3821421,23.2649074 L12.3780323,23.275831 L12.360941,23.7031097 L12.3658947,23.7234994 L12.3769048,23.7357139 L12.4804777,23.8096931 L12.4953491,23.8136134 L12.4953491,23.8136134 L12.5071152,23.8096931 L12.6106902,23.7357139 L12.6232938,23.7196733 L12.6232938,23.7196733 L12.6266527,23.7031097 L12.609561,23.275831 C12.6075724,23.2657013 12.6010112,23.2592993 12.5934901,23.257841 L12.5934901,23.257841 Z M12.8583906,23.1452862 L12.8445485,23.1473072 L12.6598443,23.2396597 L12.6498822,23.2499052 L12.6498822,23.2499052 L12.6471943,23.2611114 L12.6650943,23.6906389 L12.6699349,23.7034178 L12.6699349,23.7034178 L12.678386,23.7104931 L12.8793402,23.8032389 C12.8914285,23.8068999 12.9022333,23.8029875 12.9078286,23.7952264 L12.9118235,23.7811639 L12.8776777,23.1665331 C12.8752882,23.1545897 12.8674102,23.1470016 12.8583906,23.1452862 L12.8583906,23.1452862 Z M12.1430473,23.1473072 C12.1332178,23.1423925 12.1221763,23.1452606 12.1156365,23.1525954 L12.1099173,23.1665331 L12.0757714,23.7811639 C12.0751323,23.7926639 12.0828099,23.8018602 12.0926481,23.8045676 L12.108256,23.8032389 L12.3092106,23.7104931 L12.3186497,23.7024347 L12.3186497,23.7024347 L12.3225043,23.6906389 L12.340401,23.2611114 L12.337245,23.2485176 L12.337245,23.2485176 L12.3277531,23.2396597 L12.1430473,23.1473072 Z" id="MingCute" fill-rule="nonzero"></path>
                <path d="M9.82111,3.21218 C10.1165,2.52285 10.8814,1.89557 11.8446,2.08106 C13.3190893,2.36502286 14.8839597,3.48335597 14.9938554,5.2958072 L15,5.50004 L15,8.00002 L17.4054,8.00002 C19.8353263,8.00002 21.6875991,10.1428084 21.3712349,12.5221958 L21.3408,12.7156 L20.4318,17.7156 C20.0978276,19.5519172 18.542083,20.9040376 16.6952468,20.9951038 L16.4963,21 L6,21 C4.40232321,21 3.09633941,19.7511226 3.00509271,18.1762773 L3,18 L3,12 C3,10.402275 4.24892392,9.09633597 5.82372764,9.00509252 L6,9 L7.34061,9 L9.82111,3.21218 Z M7,11 L6,11 C5.44772,11 5,11.4477 5,12 L5,18 C5,18.5523 5.44772,19 6,19 L7,19 L7,11 Z M11.625,4.08032 L9.08085,10.0166 C9.04529,10.0996 9.02121,10.1868222 9.00910778,10.2758667 L9,10.4105 L9,19 L16.4963,19 C17.4091056,19 18.1986401,18.3833775 18.4292035,17.5137214 L18.464,17.3577 L19.3731,12.3577 C19.587372,11.179204 18.7267819,10.0905456 17.5536183,10.0053385 L17.4054,9.99998 L15,9.99998 C13.9456091,9.99998 13.0818322,9.18410267 13.0054856,8.14924241 L13,7.99998 L13,5.49998 C13,4.94712 12.5663609,4.38429449 11.7953463,4.1299782 L11.625,4.08032 Z" id="形状" fill="#09244B"></path>
            </g>
        </g>
    </g>
</svg>

<svg xmlns="http://www.w3.org/2000/svg" width="24" height="24"><g fill="none" fill-rule="evenodd"><path d="M24 0v24H0V0h24ZM12.593 23.258l-.011.002-.071.035-.02.004-.014-.004-.071-.035c-.01-.004-.019-.001-.024.005l-.004.01-.017.428.005.02.01.013.104.074.015.004.012-.004.104-.074.012-.016.004-.017-.017-.427c-.002-.01-.009-.017-.017-.018Zm.265-.113-.013.002-.185.093-.01.01-.003.011.018.43.005.012.008.007.201.093c.012.004.023 0 .029-.008l.004-.014-.034-.614c-.003-.012-.01-.02-.02-.022Zm-.715.002a.023.023 0 0 0-.027.006l-.006.014-.034.614c0 .012.007.02.017.024l.015-.002.201-.093.01-.008.004-.011.017-.43-.003-.012-.01-.01-.184-.092Z"/><path fill="#09244B" d="M9.821 3.212c.296-.69 1.06-1.316 2.024-1.13 1.474.283 3.039 1.401 3.149 3.214L15 5.5V8h2.405a4 4 0 0 1 3.966 4.522l-.03.194-.91 5a4 4 0 0 1-3.736 3.28l-.199.004H6a3 3 0 0 1-2.995-2.824L3 18v-6a3 3 0 0 1 2.824-2.995L6 9h1.34l2.481-5.788ZM7 11H6a1 1 0 0 0-1 1v6a1 1 0 0 0 1 1h1v-8Zm4.625-6.92-2.544 5.937a1 1 0 0 0-.072.259L9 10.41V19h7.496a2 2 0 0 0 1.933-1.486l.035-.156.91-5a2 2 0 0 0-1.82-2.353L17.405 10H15a2 2 0 0 1-1.995-1.85L13 8V5.5c0-.553-.434-1.116-1.205-1.37l-.17-.05Z"/></g></svg>
